packages/tokens/icons/selfService/size32Px.svg

<svg viewBox="0 0 32 32" fill="none" xmlns="http://www.w3.org/2000/svg" width="1em" height="1em"><path d="M8.5 29.5L22.5 29.5" stroke="currentColor" stroke-linecap="round" stroke-linejoin="round"/><path d="M7.5 6.5L4.5 6.5C3.39543 6.5 2.5 7.39543 2.5 8.5L2.5 22.5C2.5 23.6046 3.39543 24.5 4.5 24.5L27.5 24.5C28.6046 24.5 29.5 23.6046 29.5 22.5V20.5" stroke="currentColor" stroke-linecap="round"/><path d="M16 24.5L16 29.5" stroke="currentColor"/><path d="M10.5 5C10.5 4.17157 11.1716 3.5 12 3.5L28 3.5C28.8284 3.5 29.5 4.17157 29.5 5L29.5 15C29.5 15.8284 28.8284 16.5 28 16.5L12 16.5C11.1716 16.5 10.5 15.8284 10.5 15L10.5 5Z" stroke="currentColor" stroke-linecap="round" stroke-linejoin="round"/><circle cx="16.5" cy="7.5" r="2" stroke="currentColor"/><path d="M13.5 14.5V13.5C13.5 12.3954 14.3954 11.5 15.5 11.5H17.5C18.6046 11.5 19.5 12.3954 19.5 13.5V14.5" stroke="currentColor" stroke-linecap="round"/><line x1="21" y1="6.5" x2="27" y2="6.5" stroke="currentColor" stroke-linecap="round"/><line x1="21" y1="8.5" x2="27" y2="8.5" stroke="currentColor" stroke-linecap="round"/><line x1="21" y1="10.5" x2="27" y2="10.5" stroke="currentColor" stroke-linecap="round"/></svg>

<svg xmlns="http://www.w3.org/2000/svg" fill="none" viewBox="0 0 32 32" width="1em" height="1em"><path stroke="currentColor" stroke-linecap="round" stroke-linejoin="round" d="M8.5 29.5h14"/><path stroke="currentColor" stroke-linecap="round" d="M7.5 6.5h-3a2 2 0 0 0-2 2v14a2 2 0 0 0 2 2h23a2 2 0 0 0 2-2v-2"/><path stroke="currentColor" d="M16 24.5v5"/><path stroke="currentColor" stroke-linecap="round" stroke-linejoin="round" d="M10.5 5A1.5 1.5 0 0 1 12 3.5h16A1.5 1.5 0 0 1 29.5 5v10a1.5 1.5 0 0 1-1.5 1.5H12a1.5 1.5 0 0 1-1.5-1.5V5Z"/><circle cx="16.5" cy="7.5" r="2" stroke="currentColor"/><path stroke="currentColor" stroke-linecap="round" d="M13.5 14.5v-1a2 2 0 0 1 2-2h2a2 2 0 0 1 2 2v1m1.5-8h6m-6 2h6m-6 2h6"/></svg>
